X:1
T:Vinkovci, 76.76.76 D
T:Vinkovci, 76.76.76 D
T:Julian Jordan, 1911
T:Public Domain Courtesy of the Cyber Hymnal™
C:Julian Jordan, 1911
Z:Public Domain
Z:Courtesy of the Cyber Hymnal™
%%score ( 1 2 ) ( 3 4 )
L:1/8
Q:1/4=117
M:4/4
K:C
V:1 treble 
V:2 treble 
V:3 bass 
V:4 bass 
V:1
 [EG]2 | [EG]2 [Ec]2 [^DB]2 [DA]2 | E2 [EG]4 [EA]2 | [DG]2 [B,D]2 [CG]2 [B,F]2 | [CE]6 [EG]2 | %5
 [EG]2 [Ec]2 [^DB]2 [DA]2 | E2 [EG]4 [Gc]2 | [^Fc]2 [FA]2 [GB]2 [Fc]2 | [Fd]6 [FG]2 | %9
 [FG]2 [Fd]2 [FA]2 [FB]2 | [Ed]2 [Ec]4 [Ec]2 | [Ec]2 [EG]2 [Fc]2 [G_B]2 | [FA]6 [FA]2 | %13
 [FA]2 [Fc]2 [^DB]2 [DA]2 | [EG]2 [Gc]4 [FA]2 | [EG]2 [EG]2 [Fd]3 [FB] | [Ec]6 [EG]2 | %17
 [FG]2 [Fd]2 [FA]2 [FB]2 | [Ec]2 [EG]4 [EG]2 | [FG]2 [Fd]2 [Ec]2 [Ad]2 | [^Ge]6 [F=G]2 | %21
 [EG]2 [Ge]2 [Gd]2 [Gc]2 | [FA]2 [Fc]4 [FA]2 | [EG]2 [Gc]2 [^Fc]2 [=Fd]2 | [Ec]6 |] %25
V:2
 x2 | x8 | E2 x6 | x8 | x8 | x8 | E2 x6 | x8 | x8 | x8 | x8 | x8 | x8 | x8 | x8 | x8 | x8 | x8 | %18
 x8 | x8 | x8 | x8 | x8 | x8 | x6 |] %25
V:3
 [C,C]2 | [C,C]2 [C,G,]2 [C,^F,]2 [C,F,]2 | [C,G,]2 [C,C]4 [C,C]2 | %3
 [G,B,]2 [F,G,]2 [E,G,]2 [D,G,]2 | [C,G,]6 [C,C]2 | [C,C]2 [C,G,]2 [C,^F,]2 [C,F,]2 | %6
 [C,G,]2 [C,C]4 [E,C]2 | [D,A,]2 [D,C]2 [D,B,]2 [D,A,]2 | [G,B,]6 [G,B,]2 | %9
 [G,B,]2 [G,B,]2 [G,C]2 [G,D]2 | [C,C]2 [C,C]4 [C,G,]2 | [C,G,]2 [C,C]2 [D,G,]2 [E,C]2 | %12
 [F,C]6 [F,C]2 | [F,C]2 [F,A,]2 [^F,B,]2 [F,C]2 | [G,C]2 [E,C]4 [F,C]2 | %15
 [G,C]2 [G,C]2 [G,B,]3 [G,D] | [C,C]6 [C,C]2 | [G,B,]2 [G,B,]2 [G,C]2 [G,D]2 | %18
 [C,C]2 [C,C]4 [C,C]2 | [G,B,]2 [G,B,]2 [A,C]2 (B,A,) | [E,B,]6 [D,B,]2 | %21
 [C,C]2 [C,C]2 [D,B,]2 [E,C]2 | [F,C]2 [F,A,]4 [F,C]2 | [G,C]2 [E,C]2 [D,A,]2 [G,B,]2 | [C,C]6 |] %25
V:4
 x2 | x8 | x8 | x8 | x8 | x8 | x8 | x8 | x8 | x8 | x8 | x8 | x8 | x8 | x8 | x8 | x8 | x8 | x8 | %19
 x6 G,2 | x8 | x8 | x8 | x8 | x6 |] %25

